X:38
T:Manchester Hornpipe. JBu.38
O:England,South Yorkshire
S:Joshua Burnett’s MS,c1835,S.Yorkshire
M:C
L:1/8
Q:1/2=90
R:.hornpipe
N:No time sig in MS
Z:vmp.R.Greig.2011
K:D
AF|D2d2defd|cdef g2 fe|fefg afedc2A2A2AG|
F2d2 defd|B2G2G2AG|FDGE FDEC|D2D2D2:|
|:AG|F2d2 defd|B2G2G2BG|E2e2efge|c2A2A2AG|
F2d2defd|B2G2G2AG|FDGE FDEC|D2D2D2:|

